!!!!SEGMENT: pl-wtm--r-2024--001-002_smietanski-emil-wladyslaw--marcia-zingaresca-op-19-march-2.krn
!!!cenid: 18xx:1976
!!!COM: Śmietański, Emil Władysław
!!!COM-rismID: pe50041781
!!!CDT: 1845-1886
!!!CNT: Polish
!!!OPR: Marcia zingaresca op. 19
!!!OTL: [march 2]
!!!OMV: 002
!!!PDT: 1867
!!!AGN: Secular; March
!!!SMS-siglum: PL-Wtm
!!!SMS-shelfmark: R 2024
!!!SMS-shelfwork: 001-002 M
!!!SMS-variant:
!!!SMS-altvar:
!!!NIFC-rismSourceID: 1001112463
!!!NIFC-rismChildID: 1001112465
!!!NIFC-islandoraID: pl-wtm:29487
!!!URL-pdf-islandora: https://repozytorium.nifc.pl/islandora/object/pl-wtm%3A29487/datastream/PDF/view
!!!URL-scan: https://polish.musicsources.pl/pl/lokalizacje/galeria/rekopisy/6516 @EN{Scan on Polish Music Sources Website} @PL{Skany w portalu Dziedzictwo Muzyki Polskiej w otwartym dostępie}
!!!IIIF:
!!!ONB-nifc: UWAGA: IV. Marcia zingaresca
!!!AIN: 1 forte
!!!key:
**kern	**kern	**dynam
*part1	*part1	*part1
*staff2	*staff1	*
*Iforte	*Iempty	*
*I"[Fortepian]	*	*
*I'[pf]	*	*
*clefF4	*clefG2	*
*k[b-e-a-d-]	*k[b-e-a-d-]	*
*f:	*f:	*
*M2/4	*M2/4	*
*>[A,B,B,C]	*	*
=1	=1	=1
*>A	*	*
!	!LO:TX:a:i:t=IV. Marcia Zingaresca.	!
8f\ 8F\	8ff\ 8cc\ 8a-'\	.
8r	8r	p
8c\ 8C\	8een\ 8cc\ 8g'\	.
8r	8r	.
=2	=2	=2
(8A-\L 8AA-\	(8cc\L 8en\	.
8f\J)	8aa-\J)	.
(8c\L 8A-\	(8een\L 8a-\	.
8d-\J)	8ff\J)	.
=3	=3	=3
*	*^	*
!LO:TX:t=P:problem=mixed beam	!	!	!
8d-\L 8G\	16bn/LL	4g\	.
.	16cc'/	.	.
8GG/J	16dd-'/	.	.
.	16ff'/JJ	.	.
16En/LL 16CC/	8gg\L 8cc\ 8g'\	4rcyy	<
16F'/	.	.	.
16G'/	8gg\J 8cc'\	.	.
16c'/JJ	.	.	.
*	*v	*v	*
=4	=4	=4
16Bn\LL 16D-'\	8ff\L 8bn'\	.
16c'\	.	.
16d-'\	8ffM\J	.
16f'\JJ	.	.
8en\L 8c\	4een\ 4cc\	.
8C\J	.	.
=5	=5	=5
8F\L 8FF\	8ff\:L 8cc\: 8a-^^:\	f
8a-\J 8f\	8ff\J 8cc\	.
8C\L 8CC\	8een\:L 8cc\: 8g^^:\	.
8g\J 8c\	8ee\J 8cc\	.
=6	=6	=6
8AA-/L 8AAA-/	(16cc\LL 16en\	.
.	16aa-\)	.
8F/J 8FF/	(16aa-\ 16cc\ 16f\	.
.	16ff\JJ)	.
8c\L 8AA-\	(16een\LL 16a-\	.
.	16ff\)	.
8d-\J	(16ff\	.
.	16dd-\JJ)	.
!!LO:LB:g=original
=7	=7	=7
8d-\L 8G\	16bn\LL 16g'\	.
!	!LO:TX:b:t=dim-:ext2=cd:problem=dynamics with extention lines	!LO:HP:t=
.	16cc'\	>
8GG\J	16dd-'\	.
.	16ff'\JJ	.
16En\LL 16CC'\	8gg\L 8cc\ 8g\	.
16F'\	.	.
16G'\	8gg\J 8cc\	.
16c'\JJ	.	.
=8	=8	=8
16Bn\LL 16C'\	8een\L 8cc\ 8g\	.
16c'\	.	.
16d-'\	8ee\J 8cc\	]
16c'\JJ	.	.
!LO:TX:t=P:problem=mixed beam	!	!
8F\L	4ff\ 4cc\ 4a-\	.
8FF/J	.	.
=9!|:	=9!|:	=9!|:
*>B	*	*
8C/L 8CC/	8een\L 8cc\ 8g\	ff
8D-/J 8DD-/	8gg\J 8bn\ 8g\	.
8d-/L 8D-/	16ff\LL 16a-\	.
.	16aa-\J	.
8A-/J 8AA-/	8ccc\J 8ee\ 8cc\	.
=10	=10	=10
8C/L 8CC/	8een\L 8cc\ 8g\	ff
8D-/J 8DD-/	8gg\J 8bn\ 8g\	.
8d-/L 8D-/	16ff\LL 16a-\	.
.	16aa-\J	.
8A-/J 8AA-/	8ccc\J 8ee\ 8cc\	.
=11	=11	=11
!	!	!LO:DY:t=sf.
(16AA-/LL 16AAA-/	4een\ 4cc\ 4a-\	sf
16BBn/	.	.
16C/	.	.
16En/JJ)	.	.
8F'\L	(16aa-\LL 16cc\ 16a-\	.
.	16f\J	.
(16d-\L 16Bn\	8gg\J 8dd-'\)	.
16f\JJ)	.	.
=12	=12	=12
8F'\L	(16aa-\LL 16cc\ 16a-\	.
.	16f\J	.
(16d-\L 16Bn\	8gg\J 8dd-'\)	.
16f\JJ)	.	.
8en\L 8En\	4ccc\ 4gg\ 4cc\	.
8E\J 8EEn\	.	.
=13	=13	=13
8C/L 8CC/	8een\L 8cc\ 8g\	.
8D-/J 8DD-/	8gg\J 8bn\ 8g\	.
8d-/L 8D-/	16ff\LL 16a-\	.
.	16aa-\J	.
8A-/J 8AA-/	8ccc\J 8ee\ 8cc\	.
!!LO:LB:g=original
=14	=14	=14
8C/L 8CC/	8een\L 8cc\ 8g\	.
8D-/J 8DD-/	8gg\J 8bn\ 8g\	.
8d-/L 8D-/	16ff\LL 16a-\	.
.	16aa-\J	.
8A-/J 8AA-/	8ccc\J 8ee\ 8cc\	.
=15	=15	=15
!	!	!LO:DY:t=sf.
(16AA-/LL 16AAA-/	4een\ 4cc\ 4a-\	sf
16BBn/	.	.
16C/	.	.
16En/JJ)	.	.
8F'\L	(16aa-\LL 16cc\ 16a-\	.
.	16f\J)	.
(16d-\L 16Bn\	8gg\J 8dd-'\	.
16f\JJ)	.	.
=16	=16	=16
8F'\L	(16aa-\LL 16cc\ 16a-\	.
.	16f\J)	.
(16d-\L 16Bn\	8gg\J 8dd-'\	.
16f\JJ)	.	.
8en\L 8c\ 8En\	4ccc\ 4gg\ 4cc\	.
8C\J	.	.
=17	=17	=17
8f\ 8F\	8ff\ 8cc\ 8a-\	.
8r	8r	p
8c\ 8C\	8een\ 8cc\ 8g\	.
8r	8r	.
=18	=18	=18
(8A-\L 8AA-\	(8cc\L 8en\	.
8f\J)	8aa-\J)	.
(8c\L 8A-\	(8een\L 8a-\	.
8d-\J)	8ff\J)	.
=19	=19	=19
!LO:TX:t=P:problem=mixed beam	!	!
8d-\L 8G\	16bn\LL 16g'\	.
.	16cc'\	.
8GG\J	16dd-'\	.
.	16ff'\JJ	.
16En/LL 16CC/	8gg\L 8cc\ 8g'\	.
16F'/	.	.
16G'/	8gg\J 8cc'\	.
16c'/JJ	.	.
!!LO:LB:g=original
=20	=20	=20
16Bn\LL 16D-\	8ff\L 8bn\	.
16c\	.	.
16d-\	8ffM\J	.
16f\JJ	.	.
8en\L 8c\	4een\ 4cc\	.
8C\J	.	.
=21	=21	=21
8F\L 8FF\	8ff\:L 8cc\: 8a-:\	sf
8a-\J 8f\	8ff\J 8cc\	.
8C\L 8CC\	8een\:L 8cc\: 8g:\	sf
8g\J 8c\	8ee\J 8cc\	.
=22	=22	=22
8AA-/L 8AAA-/	(16cc\LL 16en\	f
.	16aa-'\)	.
8F/J 8FF/	(16aa-\ 16cc\ 16f'\	.
.	16ff'\JJ)	.
(8c\L 8AA-\	(16een\LL 16a-'\	.
.	16ff'\)	.
8d-\J)	(16ff'\	.
.	16dd-'\JJ)	.
=23	=23	=23
8d-\L 8G'\	16bn\LL 16g'\	.
!	!LO:TX:b:t=dim-:ext2=cd:problem=dynamics with extention lines	!LOHP:t=dim
.	16cc'\	>
8GG'\J	16dd-'\	.
.	16ff'\JJ	.
16En/LL 16CC'/	8gg\L 8cc\ 8g\	.
16F'/	.	.
16G'/	8gg\J 8cc\	.
16c'/JJ	.	.
=24	=24	=24
16Bn\LL 16C'\	8een\L 8cc\ 8g\	.
16c'\	.	.
16d-'\	8ee\J 8cc\	]
16c'\JJ	.	.
4F\	4ff\ 4cc\ 4a-\	.
=25:|!	=25:|!	=25:|!
*>C	*	*
*k[b-e-a-d-g-]	*k[b-e-a-d-g-]	*
*D-:	*D-:	*
!LO:TX:t=P:problem=mixed beam	!	!
8DD-/L	(16ff\LL	p
.	16dd-\)	.
8a-\J 8c\ 8G-\	16ee--'\	.
.	16cc'\JJ	.
!LO:TX:t=P:problem=mixed beam	!	!
8a-\L 8d-\ 8F\	(16dd-\LL	.
.	16a-\	.
8FF/J	16f\	.
.	16a-\JJ)	.
!!LO:LB:g=original
=26	=26	=26
8GG-\L	(16dd-\LL	.
.	16bb--\)	.
*clefG2	*	*
8b--\J 8d-\ 8B--\	16ff'\	.
.	16gg-'\JJ	.
8a-/L 8e--/ 8c/	(16aa-\LL	.
.	16gg-\	.
8G-/J	16ee--\	.
.	16dd-\JJ)	.
*clefF4	*	*
=27	=27	=27
8AA-\L	(16cc\LL	.
.	16dd-\)	.
*clefG2	*	*
8a-\J 8e--\ 8A-\	16ee--'\	.
.	16ff'\JJ	.
!	!LO:TX:b:t=cres-:ext2=cd:problem=dynamics with extention lines	!LO:HP:t=cresc
8cc\L 8g-\ 8e--\	16gg-\LL	<
.	16ccc\	.
8B--\J	16gg-\	.
.	16cc\JJ	.
*clefF4	*	*
=28	=28	=28
8D-\L	(16ff\LL	.
.	16gg-\)	.
*clefG2	*	*
8b--\J 8g-\ 8d-\	16bb--'\	.
.	16ccc'\JJ	.
8dd-/L 8a-/ 8f/	16ddd-\LL	.
.	16fff\	.
8F/J	16ddd-\	.
.	16aa-\JJ	[
*clefF4	*	*
=29	=29	=29
!LO:TX:t=P:problem=mixed beam	!	!
8DD-/L	(16ff\LL	p
.	16dd-\)	.
8a-\J 8c\ 8G-\	16ee--'\	.
.	16cc'\JJ	.
!LO:TX:t=P:problem=mixed beam	!	!
8a-\L 8d-\ 8F\	16dd-\LL	.
.	16a-\	.
8FF\J	16f\	.
.	16a-\JJ	.
=30	=30	=30
8GG-\L	(16dd-\LL	.
.	16bb--\)	.
*clefG2	*	*
8b--\J 8d-\ 8B--\	16ff'\	.
.	16gg-'\JJ	.
8a-/L 8e--/ 8c/	16aa-\LL	.
.	16gg-\	.
8G-/J	16ee--\	.
.	16dd-\JJ	.
!!LO:LB:g=original
*clefF4	*	*
=31	=31	=31
!LO:TX:t=P:problem=mixed beam	!	!
8AA-\L	(16cc\LL	.
.	16dd-\)	.
*clefG2	*	*
8a-/J 8e--/ 8A-/	16ee--'\	.
.	16ff'\JJ	.
8cc/L 8g-/ 8e--/	(16gg-\LL	.
.	16ccc\	.
8B--/J	16gg-\	.
.	16cc\JJ)	.
*clefF4	*	*
!!LO:LB:g=original
=32	=32	=32
8D-\L	(16ff\LL	<
.	16gg-\)	.
*clefG2	*	*
8b--\J 8g-\ 8d-\	16bb--'\	.
.	16ccc'\JJ	.
8dd-/L 8a-/ 8f/	16ddd-\LL	.
.	16fff\	.
8F/J	16ddd-\	.
.	16aa-\JJ	.
*clefF4	*	*
=33	=33	=33
8FF/L	(16aan\LL	.
.	16ff\	.
*clefG2	*	*
8cc/J 8en/ 8B-/	16gg-\	.
.	16een\JJ)	.
8cc/L 8f/ 8An/	(16ff\LL	.
.	16cc\	.
*clefF4	*	*
8AAn/J	16an\	.
.	16cc\JJ)	.
=34	=34	=34
8BB-/L	(16ff\LL	.
.	16ddd-\)	.
*clefG2	*	*
8dd-/J 8f/ 8d-/	16aan'\	.
.	16bb-'\JJ	.
8cc/L 8g-/ 8en/	(16ccc\LL	.
.	16bb-\)	.
8B-/J	16gg-'\	.
.	16ff'\JJ	.
*clefF4	*	*
=35	=35	=35
8C\L	(16een\LL	.
.	16ff\)	.
*clefG2	*	*
8b-\J 8g-\ 8c\	16gg-'\	.
.	16aan'\JJ	.
8een\L 8b-\ 8g-\	(16bb-\LL	.
.	16eeen\)	.
8d-\J	16bb-'\	.
.	16ee'\JJ	.
=36	=36	=36
8F/L	(16aan\LL	[
.	16bb-\)	.
8dd-/J 8b-/ 8f/	16ddd-\	.
.	16eeen\JJ	.
*	*8va	*
8ff/L 8cc/ 8an/	16fff\LL	.
.	16cccc\	.
8An/J	16fff\	.
.	16ccc\JJ	.
*clefG2	*	*
=37||	=37||	=37||
*k[b-]	*k[b-]	*
*F:	*F:	*
!LO:TX:t=P:problem=mixed beam	!	!
8B-/L	16fff\LL	f
.	16dddd-X\	.
8bb-\J 8ff\ 8dd-X\	16aaa\	.
.	16bbb-\JJ	.
!LO:TX:t=P:problem=mixed beam	!	!
8G-X/L	16cccc\LL	.
.	16bbb-\	.
8gg-X\J 8ee\ 8b-\	16ggg-X\	.
.	16eee\JJ	.
*	*X8va	*
!!LO:LB:g=original
=38	=38	=38
8F/L	16fff'\LL	.
.	16aaa\	.
16ff/L 16cc/ 16a/	16fff\	.
16ff/JJ 16cc/ 16a/	16ccc'\JJ	.
8cc/L 8a/ 8f/	16ccc'\LL	.
.	16fff'\	.
8ff/J 8cc#X/ 8a/	16ccc#X'\	.
.	16aa'\JJ	.
=39	=39	=39
!LO:TX:t=P:problem=mixed beam	!	!
8D/L	(16aa\LL	mf
.	16fff\	.
8dd\J 8a\ 8f\	16ccc#X\	.
.	16ddd\JJ)	.
*clefF4	*	*
8BB-\L	(16eee\LL	.
.	16ddd\)	.
8b-\J 8g#X\ 8d\	16bb-'\	.
.	16gg#X'\JJ	.
=40	=40	=40
8AA\L	(16aa\LL	.
.	16ccc#X\)	.
16a\L 16e\ 16c#X\	16aa'\	.
16a\JJ 16e\ 16c#\	16ee'\JJ	.
8e\L 8c#\ 8A\	16ee\LL	.
.	16aa\	.
8a\J 8e\ 8c#\	16ee\	.
.	16cc#X\JJ	.
=41	=41	=41
8AA\L	(16ccc#X\LL	p
.	16aa\)	.
8g#X\J 8d\	(16bb-\ 16ee\	.
.	16gg#X\JJ)	.
8A\L	(16cccn\LL	.
.	16gg#\)	.
8gn\J 8c\	(16aa\ 16dd#X\	.
!	!LO:TX:b:t=cres-:ext2=cd:problem=dynamics with extention lines	!LO:HP:t=cresc
.	16ggn\JJ)	<
!!LO:LB:g=original
=42	=42	=42
8AA\L	(16bbn\LL	.
.	16ggn\)	.
8f\J 8cn\	(16gg#X\ 16ddn\	.
.	16ff\JJ)	.
8A\L	(16bb-X\LL	.
.	16ff\)	.
8fn\J 8Bn\	(16ggn\ 16cc\	.
.	16ffn\JJ)	.
=43	=43	=43
8AA\L	16aa\LL	.
.	16ffn\	.
8e\J 8B-X\	16ff#X\ 16ccn\	.
.	16ee\JJ	.
8AA\L	16gg#X'\LL	.
.	16ee\	.
8d#X\J 8A\	16ffn\ 16b-'\	.
.	16dd#X\JJ	[
!!LO:PB:g=original
=44	=44	=44
!	!LO:TX:t=P:problem=wykreślony jeden takt	!
8AA\L	16gg\LL	<
.	16ee-X\	.
8d\J 8G#X\	16een\ 16b-\	.
.	16dd\JJ	.
8AA\L	16ff#X\LL	.
.	16dd\	.
8c#X\J 8G#\	16ee-X\ 16a\	.
.	16cc#X\JJ	[
=45	=45	=45
*k[b-e-a-d-g-]	*k[b-e-a-d-g-]	*
*D-:	*D-:	*
!LO:TX:t=P:problem=mixed beam	!	!
8DD-/L	(16ffn\LL	f
.	16dd-\)	.
8a-\J 8c\ 8G-\	16ee--'\	.
.	16cc'\JJ	.
!LO:TX:t=P:problem=mixed beam	!	!
8a-\L 8d-\ 8F\	16dd-\LL	.
.	16a-\	.
8FF\J	16f\	.
.	16a-\JJ	.
=46	=46	=46
8GG-/L	(16dd-\LL	.
.	16bb--\)	.
*clefG2	*	*
8b--/J 8d-/ 8B--/	16ff'\	.
.	16gg-'\JJ	.
8a-/L 8e--/ 8c/	16aa-\LL	.
.	16gg-\	.
8G-/J	16ee--\	.
.	16dd-\JJ	.
*clefF4	*	*
=47	=47	=47
8AA-\L	16cc\LL	.
.	16dd-\	.
*clefG2	*	*
8a-\J 8e--\ 8A-\	16ee--\	.
.	16ff\JJ	.
8cc\L 8g-\ 8e--\	16gg-\LL	.
.	16ccc\	.
8B--/J	16gg-\	.
.	16cc\JJ	.
*clefF4	*	*
=48	=48	=48
8D-\L	16ff\LL	.
.	16gg-\	.
*clefG2	*	*
8b--\J 8g-\ 8d-\	16bb--\	.
.	16ccc\JJ	.
!LO:TX:t=P:problem=mixed beam	!	!
8dd-\L 8a-\ 8f\	16ddd-\LL	.
.	16fff\	.
8F/J	16ddd-\	.
.	16aa-\JJ	.
!!LO:PB:g=original
=49	=49	=49
*clefF4	*	*
!LO:TX:t=P:problem=mixed beam	!	!
8DD-/L	16ff\LL	p
.	16dd-\	.
8a-\J 8c\ 8G-\	16ee--\	.
.	16cc\JJ	.
8a-\L 8d-\ 8F\	16dd-\LL	.
.	16ee--\	.
8D-\J	16ff\	.
.	16aa-\JJ	.
=50	=50	=50
8FF\L	(16aa-\LL	.
.	16ccc\)	.
8cc\J 8f\ 8A-\	16aa-'\	.
.	16gg-'\JJ	.
8bn\L 8f\ 8d-\	16ff\LL	.
.	16gg-\	.
8D-\J	16aa-\	.
.	16bbn\JJ	.
=51	=51	=51
8C\L	(16ccc\LL	pp
.	16eee-\)	.
*clefG2	*	*
8een\J 8g-\ 8c\	16ccc'\	.
.	16gg-'\JJ	.
8cc/L 8a-/ 8en/	16aa-\LL	.
.	16een\	.
8En/J	16aa-\	.
.	16ccc\JJ	.
*clefF4	*	*
=52	=52	=52
8AA-'/L	16ccc\LL	.
.	16eeen\	.
*clefG2	*	*
8cc/J 8a-/ 8en/	16ccc\	.
.	16aa-\JJ	.
8cc/L 8e/ 8c/	16gg-\LL	.
.	16ccc\	.
*clefF4	*	*
8C'/J	16gg-\	.
.	16een\JJ	.
=53	=53	=53
8EEn'/L	16aa-\LL	.
.	16ccc\	.
*clefG2	*	*
8a-/J 8en/ 8c/	16aa-\	.
.	16een\JJ	.
8a-/L 8c/ 8A-/	16ee-X\LL	.
.	16aa-\	.
*clefF4	*	*
8AA-'/J	16ee-\	.
.	16cc\JJ	.
=54	=54	=54
!LO:TX:t=P:problem=mixed beam	!	!
8CC/L	16een\LL	.
.	16aa-\	.
8en\J 8c\ 8A-\	16ee\	.
.	16cc\JJ	.
8e\L 8A-\ 8En\	16bn\LL	.
.	16ee\	.
8EEn\J	16b\	.
.	16a-\JJ	.
!!LO:LB:g=original
=55	=55	=55
!LO:TX:t=P:problem=mixed beam	!	!
8AAA-/L	16cc\LL	pp
.	16een\	.
8c\J 8A-\ 8En\	16cc\	.
.	16a-\JJ	.
!LO:TX:t=P:problem=mixed beam	!	!
8c\L 8E\ 8C\	16g-\LL	.
.	16cc\	.
8CC\J	16g-\	.
.	16en\JJ	.
=56	=56	=56
8c\L	8cc\L	.
(>32qqBn/	(>32qqbn/	.
8c\J)	8cc\J)	.
8c\L	8cc\L	.
(>32qqen/	(>16qqdd-/	.
8c\J)	8cc\J)	.
=57	=57	=57
!LO:TX:t=P:problem=mixed beam	!LO:TX:b:t=cres-:ext2=cd:problem=dynamics with extention lines	!LO:HP:t=cresc
8AAA-/L	16cc\LL	<
.	16een\	.
8c\J 8A-\ 8En\	16cc\	.
.	16a-\JJ	.
!LO:TX:t=P:problem=mixed beam	!	!
(8c\L 8E\ 8C\t	16g-\LL	.
*Xped	*	*
.	16cc\	.
8CC\J)	16g-\	.
.	16en\JJ	.
=58	=58	=58
8c\L	8cc\L	.
32qqBn/	(32qqbn/	.
8c\J	8cc\J)	.
8c\L	8cc\L	.
32qqen/	(>16qqeen/	.
8c\J	8cc\J)	.
=59	=59	=59
8C/L 8CC/	8cc\L	.
32qqBn/	(>32qqbn/	.
8c\J	8cc\J)	.
!	!LO:TX:b:i:t=molto	!
8c\L	8cc\L	.
32qqen/	(>32qqeen/	.
8c\J	8cc\J)	.
=60	=60	=60
8C/L 8CC/	8cc\L	.
32qqBn/	(>32qqbn/	.
8c\J	8cc\J)	.
8c\L	8cc\L	.
32qqg-/	(>32qqgg-/	[
8c\J	8cc\J)	.
!!LO:LB:g=original
=61	=61	=61
8C\L 8CC\	8cc\	f
8c\J	(32ccc\LLL	.
.	32cc\JJJ)	.
.	16r	.
8C\L 8CC\	8cc\	.
8c\J	(32ccc\LLL	.
.	32cc\JJJ)	.
.	16r	.
=62	=62	=62
*2\right	*2\right	*
2ctt\	2cctt\	.
*k[gn]	*k[gn]	*
=63||	=63||	=63||
*k[b-e-a-d-]	*k[b-e-a-d-]	*
8f\ 8F\	8ff\ 8cc\ 8a-\	f
8r	8r	.
8c\ 8C\	8een\ 8cc\ 8g\	.
8r	8r	.
=64	=64	=64
8A-\L 8AA-\	(8cc\L 8en\	.
8f\J	8aa-\J)	.
8c\L 8A-\	(8een\L 8a-\	.
8d-\J	8ff\J)	.
=65	=65	=65
!LO:TX:t=P:problem=mixed beam	!	!
8d-\L 8G\	16bn\LL 16g'\	.
.	16cc'\	.
8GG/J	16dd-'\	.
.	16ff'\JJ	.
16En\LL 16CC'\	8gg\L 8cc\ 8g\	.
16F'\	.	.
16G'\	8gg\J 8cc\	.
16c'\JJ	.	.
=66	=66	=66
16Bn\LL 16D-'\	8ff\L 8bn\	.
16c'\	.	.
16d-'\	8ffM\J	.
16f'\JJ	.	.
8en\L 8c\	4een\ 4cc\	.
8C\J	.	.
=67	=67	=67
8F\L 8FF\	8ff\:L 8cc\: 8a-':\	p
8a-\J 8f\	8ff\J 8cc\	.
8C\L 8CC\	8een\:L 8cc\: 8g':\	.
8g\J 8c\	8ee\J 8cc\	.
!!LO:LB:g=original
=68	=68	=68
8AA-/L 8AAA-/	(16cc\LL 16en\	.
.	16aa-\)	.
8F/J 8FF/	(16aa-\ 16cc\ 16f\	.
.	16ff\JJ)	.
8c\L 8AA-\	(16een\LL 16a-\	.
.	16ff\)	.
8d-\J	(16ff\	.
.	16dd-\JJ)	.
=69	=69	=69
!LO:TX:t=P:problem=mixed beam	!	!
8d-\L 8G\	16bn\LL 16g'\	.
.	16cc'\	.
8GG/J	16dd-'\	.
.	16ff'\JJ	.
16En/LL 16CC'/	8gg\L 8cc\ 8g\	.
16F'/	.	.
16G'/	8gg\J 8cc\	.
16c'/JJ	.	.
=70	=70	=70
16Bn\LL 16C'\	8een\L 8cc\ 8g\	.
16c'\	.	.
16d-'\	8ee\J 8cc\	.
16c'\JJ	.	.
!LO:TX:t=P:problem=mixed beam	!	!
8F\L	4ff\ 4cc\ 4a-\	.
8FF/J	.	.
=71||	=71||	=71||
8C/L 8CC/	8een\L 8cc\ 8g\	ff
!	!LO:TX:b:i:t=sempre	!
8D-/J 8DD-/	8gg\J 8bn\ 8g\	.
8d-\L 8D-\	16ff\LL 16a-\	.
.	16aa-\J	.
8A-\J 8AA-\	8ccc\J 8ee\ 8cc\	.
=72	=72	=72
8C/L 8CC/	8een\L 8cc\ 8g\	.
8D-/J 8DD-/	8gg\J 8bn\ 8g\	.
8d-\L 8D-\	16ff\LL 16a-\	.
.	16aa-\J	.
8A-\J 8AA-\	8ccc\J 8ee\ 8cc\	.
=73	=73	=73
(16AA-/LL 16AAA-/	4een\ 4cc\ 4a-\	.
16BBn/	.	.
16C/	.	.
16En/JJ)	.	.
8F'\L	(16aa-\LL 16cc\ 16a-\	.
.	16f\J	.
(16d-\L 16Bn\	8gg\J 8dd-'\)	.
16f\JJ)	.	.
!!LO:LB:g=original
=74	=74	=74
8F'\L	(16aa-\LL 16cc\ 16a-\	.
.	16f\J)	.
(16d-\L 16Bn\	8gg\J 8dd-'\	.
16f\JJ)	.	.
8en\L 8En\	4ccc\ 4gg\ 4cc\	.
8E\J 8EEn\	.	.
=75	=75	=75
8C/L 8CC/	8een\L 8cc\ 8g\	.
8D-/J 8DD-/	8gg\J 8bn\ 8g\	.
8d-\L 8D-\	16ff\LL 16a-\	.
.	16aa-\J	.
8A-\J 8AA-\	8ccc\J 8ee\ 8cc\	.
=76	=76	=76
8C/L 8CC/	8een\L 8cc\ 8g\	.
8D-/J 8DD-/	8gg\J 8bn\ 8g\	.
8d-\L 8D-\	16ff\LL 16a-\	.
.	16aa-\J	.
8A-\J 8AA-\	8ccc\J 8ee\ 8cc\	.
=77	=77	=77
(16AA-/LL 16AAA-/	4een\ 4cc\ 4a-\	.
16BBn/	.	.
16C/	.	.
16En/JJ)	.	.
8F'\L	(16aa-\LL 16cc\ 16a-\	.
.	16f\J)	.
(16d-\L 16Bn\	8gg\J 8dd-'\	.
16f\JJ)	.	.
=78	=78	=78
8F'\L	(16aa-\LL 16cc\ 16a-\	.
.	16f\J)	.
(16d-\L 16Bn\	8gg\J 8dd-'\	.
16f\JJ)	.	.
8en\L 8c\ 8En\	4ccc\ 4gg\ 4cc\	.
8C\J	.	.
=79||	=79||	=79||
8f\ 8F\	8ff\ 8cc\ 8a-\	.
8r	8r	p
8c\ 8C\	8een\ 8cc\ 8g\	.
8r	8r	.
=80	=80	=80
(8A-\L 8AA-\	(8cc\L 8en\	.
8f\J)	8aa-'\J)	.
(8c\L 8A-\	(8een\L 8a-\	.
8d-\J)	8ff'\J)	.
!!LO:LB:g=original
=81	=81	=81
!LO:TX:t=P:problem=mixed beam	!	!
8d-\L 8G\	16bn\LL 16g'\	.
.	16cc'\	.
8GG/J	16dd-'\	.
.	16ff'\JJ	.
16En\LL 16CC'\	8gg\L 8cc\ 8g\	.
16F'\	.	.
16G'\	8gg\J 8cc\	.
16c'\JJ	.	.
=82	=82	=82
16Bn\LL 16D-'\	8ff\L 8bn\	.
16c'\	.	.
16d-'\	8ffM\J	.
16f'\JJ	.	.
8en\L 8c\	4een\ 4cc\	.
8C\J	.	.
=83	=83	=83
8F\L 8FF\	8ff\:L 8cc\: 8a-:\	.
8a-\J 8f\	8ff\J 8cc\	.
8C\L 8CC\	8een\:L 8cc\: 8g:\	.
8g\J 8c\	8ee\J 8cc\	.
=84	=84	=84
8AA-/L 8AAA-/	(16cc\LL 16en\	.
.	16aa-\)	.
8F/J 8FF/	(16aa-\ 16cc\ 16f\	.
.	16ff\JJ)	.
8c\L 8AA-\	(16een\LL 16a-\	.
.	16ff\)	.
8d-\J	(16ff\	.
.	16dd-\JJ)	.
=85	=85	=85
8d-\L 8G\	16bn\LL 16g'\	.
.	16cc'\	.
8GG\J	16dd-'\	.
.	16ff'\JJ	.
16En\LL 16CC'\	8gg\L 8cc\ 8g\	.
16F'\	.	.
16G'\	8gg\J 8cc\	.
16c'\JJ	.	.
=86	=86	=86
16Bn\LL 16C'\	8een\L 8cc\ 8g\	.
16c'\	.	.
16d-'\	8ee\J 8cc\	.
16c'\JJ	.	.
4r;	4r;	.
!!LO:PB:g=original
=87||	=87||	=87||
*k[b-]	*k[b-]	*
*F:	*F:	*
8FF/L	(16aa\LL	p
.	16ff\)	.
*clefG2	*	*
8cc/J 8e/ 8B-/	16gg-X'\	.
.	16ee'\JJ	.
8cc/L 8f/ 8A/	16ff\LL	.
.	16cc\	.
*clefF4	*	*
8AA/J	16a\	.
.	16cc\JJ	.
=88	=88	=88
8BB-/L	(16ff\LL	<
.	16ddd-X\)	.
*clefG2	*	*
8dd-X/J 8f/ 8d-X/	16aan'\	.
.	16bb-'\JJ	.
8cc/L 8g-X/ 8e/	16ccc\LL	.
.	16bb-\	.
8B-/J	16gg-X\	.
.	16ff\JJ	.
=89	=89	=89
8C/L	16een\LL	.
.	16ff\	.
8b-/J 8g-X/ 8c/	16gg-X\	.
.	16aa\JJ	.
8ee/L 8b-/ 8g-/	16bb-\LL	.
.	16eeen\	.
8d-X/J	16bb-\	.
.	16ee\JJ	.
=90	=90	=90
8F/L	16aan\LL	.
.	16bb-\	.
8dd-X/J 8b-/ 8f/	16ddd\	.
.	16eeen\JJ	[
8ff/L 8cc/ 8a/	16fff\LL	.
.	16aaa\	.
8A/J	16fff\	.
.	16ccc\JJ	.
*clefF4	*	*
=91	=91	=91
8FF/L	(16aa\LL	p
.	16ff\)	.
*clefG2	*	*
8cc/J 8e/ 8B-/	16gg-X'\	.
.	16ee'\JJ	.
8cc/L 8f/ 8A/	16ff\LL	<
.	16cc\	.
*clefF4	*	*
8AA/J	16a\	.
.	16cc\JJ	.
=92	=92	=92
8BB-/L	(16ff\LL	.
.	16ddd-X\)	.
*clefG2	*	*
8dd-X/J 8f/ 8d-X/	16aa'\	[
.	16bb-'\JJ	.
8C/L	16ccc\LL	>
.	16bb-\	.
8cc/J 8b-/ 8e/	16gg-X\	]
.	16ff\JJ	.
!!LO:LB:g=original
=93	=93	=93
*clefF4	*	*
8FF/L	(16aa\LL	<
.	16ff\)	.
*clefG2	*	*
8cc/J 8e/ 8B-/	16gg-X'\	.
.	16ee'\JJ	.
8cc/L 8f/ 8A/	16ff\LL	.
.	16cc\	.
*clefF4	*	*
8AA/J	16a\	.
.	16cc\JJ	.
=94	=94	=94
8BB-/L	(16ff\LL	.
.	16ddd-X\)	.
*clefG2	*	*
8dd-X/J 8f/ 8d-X/	16aa'\	[
.	16bb-'\JJ	.
*clefF4	*	*
8C/L	16ccc\LL	>
.	16bb-\	.
*clefG2	*	*
8cc/J 8b-/ 8e/	16gg-X\	]
.	16ff\JJ	.
*clefF4	*	*
=95	=95	=95
8FF\L	(16ff\LL	f
.	16aa\)	.
8f\J 8d-X\ 8A\	16ff'\	.
.	16dd-X'\JJ	.
8f\L 8c\ 8A\	16cc\LL	.
.	16ff\	.
!	!LO:TX:b:t=cres-:ext2=cd:problem=dynamics with extention lines	!LO:HP:t=cresc
8F\J	16cc\	<
.	16a\JJ	.
=96	=96	=96
8FF\L	(16dd-X\LL	.
.	16ff\)	.
8d-X\J 8A\ 8F\	16dd-'\	.
.	16a'\JJ	.
8d-\L 8A-X\ 8F\	16a-X\LL	.
.	16dd-\	.
8D-X\J	16f\	.
.	16f\JJ	.
=97	=97	=97
!LO:TX:t=P:problem=mixed beam	!	!
8FFF/L	16a\LL	.
.	16cc#X\	.
8A\J 8F\ 8C#X\	16a\	.
.	16f\JJ	.
8A\L 8E\ 8C#\	16e/LL	.
.	16a/	.
8AA\J	16e/	.
.	16c#X/JJ	.
=98	=98	=98
!LO:TX:t=P:problem=mixed beam	!	!
8FFF/L	16f/LL	.
.	16a/	.
8F\J 8D-X\ 8AA\	16f/	.
.	16d-X/JJ	.
8F/L 8C/ 8AA/	16c/LL	.
.	16f/	.
8FF/J	16c/	.
.	16A/JJ	[
=99	=99	=99
8CC\L 8FFF\	16f/LL	ff
.	16c/	.
8C\J 8FF\	16F</	.
.	16C</JJ	.
8CC\L 8FFF\	16F</LL	.
.	16C</	.
8C\J 8FF\	16F</	.
.	16C</JJ	.
=100	=100	=100
16FF\LL 16FFF\	16F</LL	.
16EE\	16E</	.
16DD-X\	16D-X</	.
16CC\JJ	16C</JJ	.
16FF\LL 16FFF\	16F</LL	.
16EE\	16E</	.
16DD-X\	16D-X</	.
16CC\JJ	16C</JJ	.
=101	=101	=101
8CC\L 8FFF\	16f/LL	ff
.	16c/JJ	.
8C\J 8FF\	16F</LL	.
.	16C</JJ	.
8CC\L 8FFF\	16F</LL	.
.	16C</	.
8C\J 8FF\	16F</	.
.	16C</JJ	.
=102	=102	=102
16FF\LL 16FFF\	16F</LL	.
16EE\	16E</	.
16DD\	16D-X</	.
16CC\JJ	16C</JJ	.
16FF\LL 16FFF\	16F</LL	.
16EE\	16E</	.
16DD\	16D-</	.
16CC\JJ	16C</JJ	.
=103	=103	=103
4FF\ 4FFF\	4F</	.
4r	4ryy	.
=104	=104	=104
4e\ 4c#X\ 4A\ 4F\	4aa\ 4cc#X\ 4a\	.
4r	4r	.
=105	=105	=105
!	!LO:TX:b:i:t=Fine.	!
32qqF\ 32qqC\ 32qqFF;\	32qqf/ 32qqc/ 32qqA;/	.
2F\ 2C\ 2FF;\	2f/ 2c/ 2A;/	.
==	==	==
*-	*-	*-
!!!system-decoration: {(s1,s2)}
!!!RDF**kern: | = vertical stroke
!!!RDF**kern: > = above
!!!RDF**kern: < = below
!!!RDF**dynam: p = p.
!!!RDF**dynam: mf = mf.
!!!RDF**dynam: f = f.
!!!EED: Leszek Kubiak
!!!EEV: 2021-05-21
!!!ENC: Mateusz Solarz
!!!END: 2021-05-04
!!!YEC: Copyright 2022 Narodowy Instytut Fryderyka Chopina (https://polishscores.org)
!!!YEM: License CC-BY-4.0 (https://creativecommons.org/licenses/by/4.0)
